X:1
T:St. Quintin, 67.77
T:St. Quintin, 67.77
T:Adapted from Henry Parr, 1834
T:Public Domain Courtesy of the Cyber Hymnal™
C:Adapted from Henry Parr, 1834
Z:Public Domain
Z:Courtesy of the Cyber Hymnal™
%%score ( 1 2 ) ( 3 4 )
L:1/8
Q:1/4=180
M:4/2
K:D
V:1 treble 
V:2 treble 
V:3 bass 
V:4 bass 
V:1
 [EA]4 | [FA]6 [CG]2 [DF]4 [Dd]4 | (d8 c4) [Fd]2 [Fc]2 | [DB]4 [DA]4 [DB]4 [DB]4 | %4
 A12 [EA]2 [EA]2 | [DA]6 [CG]2 [DF]4 [Dd]4 | (d8 c4) [Dd]2 [Dc]2 | [DB]4 [EG]4 [DF]4 [CE]4 | D12 |] %9
V:2
 x4 | x16 | E12 x4 | x16 | (D8 C4) x4 | x16 | E12 x4 | x16 | D12 |] %9
V:3
 C4 | [F,D]6 [E,G,]2 A,4 [B,,^G,]4 | [A,,A,]12 [D,A,]2 [D,A,]2 | G,4 [F,A,]4 G,4 [E,G,]4 | %4
 [A,,A,]12 [A,C]2 [G,C]2 | [F,A,]6 [E,A,]2 A,4 [B,,^G,]4 | [A,,A,]12 [F,A,]2 [F,A,]2 | %7
 G,4 [E,B,]4 A,4 (A,2 G,2) | (G,8 F,4) |] %9
V:4
 (A,3 G,) | x8 (D,2 C,2) x4 | x16 | G,4 G,4 x8 | x16 | x8 (D,2 C,2) x4 | x16 | G,4 A,4 A,,4 x4 | %8
 D,12 |] %9

